images/node-project-training/feedback-person.svg

<svg fill="none" height="60" viewBox="0 0 60 60" width="60" xmlns="http://www.w3.org/2000/svg"><circle cx="30" cy="30" fill="#f2f2f2" r="30"/><path d="m21.25 40.5s-1.75 0-1.75-1.75 1.75-7 10.5-7 10.5 5.25 10.5 7-1.75 1.75-1.75 1.75zm8.75-10.5c1.3924 0 2.7277-.5531 3.7123-1.5377s1.5377-2.3199 1.5377-3.7123-.5531-2.7277-1.5377-3.7123-2.3199-1.5377-3.7123-1.5377-2.7277.5531-3.7123 1.5377-1.5377 2.3199-1.5377 3.7123.5531 2.7277 1.5377 3.7123 2.3199 1.5377 3.7123 1.5377z" fill="#000"/></svg>

<svg width="60" height="60" viewBox="0 0 60 60" fill="none" xmlns="http://www.w3.org/2000/svg">
<circle cx="30" cy="30" r="30" fill="#F2F2F2"/>
<path d="M21.25 40.5C21.25 40.5 19.5 40.5 19.5 38.75C19.5 37 21.25 31.75 30 31.75C38.75 31.75 40.5 37 40.5 38.75C40.5 40.5 38.75 40.5 38.75 40.5H21.25ZM30 30C31.3924 30 32.7277 29.4469 33.7123 28.4623C34.6969 27.4777 35.25 26.1424 35.25 24.75C35.25 23.3576 34.6969 22.0223 33.7123 21.0377C32.7277 20.0531 31.3924 19.5 30 19.5C28.6076 19.5 27.2723 20.0531 26.2877 21.0377C25.3031 22.0223 24.75 23.3576 24.75 24.75C24.75 26.1424 25.3031 27.4777 26.2877 28.4623C27.2723 29.4469 28.6076 30 30 30Z" fill="black"/>
</svg>
